X:1
T:Partition sans titre
C:Compositeur / Arrangeur
L:1/8
M:4/4
I:linebreak $
K:D
V:1 treble nm="Violon" snm="Vln."
V:1
"D" f2 ed fdef |"G" gABc PB2 A2 |"D" f2 ed fdef |"G" gABc"D" d4 ::"D" a2 fd Adfd |"A" cABc PB2 A2 | %6
"D" a2 fd Adfd |"A" cABc"D" d4 ::"A" c3 c B2 AB | cAcA EAAB | cAcA B2 AB |1 cAec A2 AB :|2 %12
 cAec ABAG |:"D" FAdf a2 fd |"A" cABc B2 AG |"D" FAdf afdg |1"G" bg"A"ec"D" d2 AG :|2 %17
"G" bg"A"ec"D" d4 |] %18
